X: 129
M:2/4
L:1/16
K:G
uc2"^Segno"|\
|:gfge fgaf | .g2(bg) afdf | gfge fgaf | bgef g2g2 |
  gfge fgaf | .g2(bg) afdf | gfge fgaf | bgeg gedc "_D.C.""^Segno":|


